X:1370
T:Madam Frederick
T:The Recovery
C:William Marshall
B:The Skye Collection (1887)
Z:Nigel Gatherer
M:4/4
L:1/8
K:A
c|A,>B,C>D E>FE<C|A,CE<C E<AA>c|A,>B,C>D E>FE<C|B,>B d/c/B/A/ Gc|
A,>B,C>D E>FE<C|A,CE<C E<AA>c|ecAE Fdfe|dcBA GBB|]
c|A<A c>A e>Ac>A|E>Ac>A f/e/d/c/ Bc|A<A c>AeAcA|F>A F/E/D/C/ B,BBc|
A<A c>A e>Ac>A|E>Ac>A f/e/d/c/ Bc|A>cA<E F>AF<D|E>DC>B, A,AA|]
